public/cloud-icons/azure/compute/cluster-manager-operator-nexus.svg

<?xml version="1.0" encoding="UTF-8" standalone="no"?>
<!-- Generated by Microsoft Visio, SVG Export Cluster Manager (Operator Nexus).svg Page-1 -->

<svg
   xmlns:dc="http://purl.org/dc/elements/1.1/"
   xmlns:cc="http://creativecommons.org/ns#"
   xmlns:rdf="http://www.w3.org/1999/02/22-rdf-syntax-ns#"
   xmlns:svg="http://www.w3.org/2000/svg"
   xmlns="http://www.w3.org/2000/svg"
   xmlns:sodipodi="http://sodipodi.sourceforge.net/DTD/sodipodi-0.dtd"
   xmlns:inkscape="http://www.inkscape.org/namespaces/inkscape"
   width="56.688705"
   height="39.693867"
   viewBox="0 0 56.688705 39.693867"
   xml:space="preserve"
   class="st4"
   version="1.1"
   id="svg35"
   sodipodi:docname="Cluster Manager (Operator Nexus).svg"
   style="font-size:12px;overflow:visible;color-interpolation-filters:sRGB;fill:none;fill-rule:evenodd;stroke-linecap:square;stroke-miterlimit:3"
   inkscape:version="0.92.5 (2060ec1f9f, 2020-04-08)"><metadata
   id="metadata39"><rdf:RDF><cc:Work
       rdf:about=""><dc:format>image/svg+xml</dc:format><dc:type
         rdf:resource="http://purl.org/dc/dcmitype/StillImage" /></cc:Work></rdf:RDF></metadata><sodipodi:namedview
   pagecolor="#ffffff"
   bordercolor="#666666"
   borderopacity="1"
   objecttolerance="10"
   gridtolerance="10"
   guidetolerance="10"
   inkscape:pageopacity="0"
   inkscape:pageshadow="2"
   inkscape:window-width="640"
   inkscape:window-height="480"
   id="namedview37"
   showgrid="false"
   inkscape:zoom="2.1911093"
   inkscape:cx="28.346976"
   inkscape:cy="19.840974"
   inkscape:window-x="0"
   inkscape:window-y="0"
   inkscape:window-maximized="0"
   inkscape:current-layer="svg35" />
	<style
   type="text/css"
   id="style2">
	<![CDATA[
		.st1 {fill:url(#grad0-6);stroke:none;stroke-linecap:butt;stroke-width:34}
		.st2 {fill:#50e6ff;stroke:none;stroke-linecap:butt;stroke-width:34}
		.st3 {fill:#ffffff;stroke:none;stroke-linecap:butt;stroke-width:34}
		.st4 {fill:none;fill-rule:evenodd;font-size:12px;overflow:visible;stroke-linecap:square;stroke-miterlimit:3}
	]]>
	</style>

	<defs
   id="Patterns_And_Gradients">
		<linearGradient
   id="grad0-6"
   x1="0"
   y1="85.399518"
   x2="44.052284"
   y2="85.399518"
   gradientTransform="scale(1.2017538,0.83211718)"
   gradientUnits="userSpaceOnUse">
			<stop
   offset="0"
   stop-color="#0078d4"
   stop-opacity="1"
   id="stop4" />
			<stop
   offset="0.82"
   stop-color="#5ea0ef"
   stop-opacity="1"
   id="stop6" />
		</linearGradient>
	</defs>
	<g
   id="g33"
   transform="translate(-34.000024,-34.001107)">
		<title
   id="title10">Page-1</title>
		<g
   id="group12394-1"
   transform="translate(34.0007,-34.0157)">
			<title
   id="title12">Cluster Manager (Operator Nexus).12394</title>
			<g
   id="group12395-2">
				<title
   id="title14">Sheet.12395</title>
				<g
   id="shape12396-3"
   transform="translate(3.74803,-3.0456)">
					<title
   id="title16">Sheet.12396</title>
					<path
   d="M 52.94,96.23 A 11.874,11.5979 -180 0 0 42.61,85.07 14.9606,14.6127 -180 0 0 27.18,71.07 15.4016,15.0434 -180 0 0 12.41,80.85 14.1102,13.7821 -180 0 0 0,94.2 14.3937,14.059 -180 0 0 14.9,107.71 H 41.01 A 12,11.7209 -180 0 0 52.94,96.23 Z"
   class="st1"
   id="path18"
   inkscape:connector-curvature="0"
   style="fill:url(#grad0-6);stroke:none;stroke-width:34;stroke-linecap:butt" />
				</g>
				<g
   id="shape12397-7">
					<title
   id="title21">Sheet.12397</title>
					<path
   d="M 0,96.05 A 11.8425,11.5671 0 0 1 11.97,84.36 11.874,11.5979 0 0 1 23.94,96.05 v 11.66 H 11.97 A 11.8425,11.5671 0 0 1 0,96.05 Z"
   class="st2"
   id="path23"
   inkscape:connector-curvature="0"
   style="fill:#50e6ff;stroke:none;stroke-width:34;stroke-linecap:butt" />
				</g>
				<g
   id="shape12398-9"
   transform="translate(4.18898,-4.09156)">
					<title
   id="title26">Sheet.12398</title>
					<path
   d="M 15.24,100.91 V 99.19 L 13.45,98.57 13.01,97.4 13.89,95.59 V 95.4 L 13.32,94.85 12.66,94.11 H 12.41 L 10.65,95.03 9.45,94.7 8.66,92.76 H 6.93 l -0.6,1.75 -1.32,0.52 -2.05,-0.95 -1.23,1.2 V 95.5 L 2.65,97.22 2.11,98.51 0,99.28 V 101 h 0.25 l 1.86,0.62 0.5,1.17 -0.94,2 1.23,1.23 h 0.25 l 1.73,-0.86 1.23,0.49 0.76,2.06 h 1.76 v -0.25 l 0.6,-1.84 1.2,-0.5 2.07,0.96 1.23,-1.2 v -0.25 l -0.88,-1.72 0.35,-1.2 z m -7.4,1.6 a 2.48819,2.43032 0 0 1 0,-4.83 2.45669,2.39956 0 0 1 2.49,2.4 2.45669,2.39956 0 0 1 -2.49,2.43 z"
   class="st3"
   id="path28"
   inkscape:connector-curvature="0"
   style="fill:#ffffff;stroke:none;stroke-width:34;stroke-linecap:butt" />
				</g>
			</g>
		</g>
	</g>
</svg>

<svg xmlns="http://www.w3.org/2000/svg" xml:space="preserve" width="56.689" height="39.694" style="font-size:12px;overflow:visible;color-interpolation-filters:sRGB;fill-rule:evenodd;stroke-linecap:square;stroke-miterlimit:3" viewBox="0 0 56.689 39.694"><defs><linearGradient id="a" x1="0" x2="44.052" y1="85.4" y2="85.4" gradientTransform="scale(1.20175 .83212)" gradientUnits="userSpaceOnUse"><stop offset="0" stop-color="#0078d4"/><stop offset=".82" stop-color="#5ea0ef"/></linearGradient></defs><g transform="translate(-34 -34.001)"><title>Page-1</title><g transform="translate(34 -34.016)"><title>Cluster Manager (Operator Nexus).12394</title><title>Sheet.12395</title><g transform="translate(3.748 -3.046)"><title>Sheet.12396</title><path d="M52.94 96.23a11.874 11.598-180 0 0-10.33-11.16 14.96 14.613-180 0 0-15.43-14 15.402 15.043-180 0 0-14.77 9.78A14.11 13.782-180 0 0 0 94.2a14.394 14.059-180 0 0 14.9 13.51h26.11a12 11.72-180 0 0 11.93-11.48" style="fill:url(#a);stroke:none;stroke-width:34;stroke-linecap:butt"/></g><title>Sheet.12397</title><path d="M0 96.05a11.843 11.567 0 0 1 11.97-11.69 11.874 11.598 0 0 1 11.97 11.69v11.66H11.97A11.843 11.567 0 0 1 0 96.05" style="fill:#50e6ff;stroke:none;stroke-width:34;stroke-linecap:butt"/><g transform="translate(4.189 -4.092)"><title>Sheet.12398</title><path d="M15.24 100.91v-1.72l-1.79-.62-.44-1.17.88-1.81v-.19l-.57-.55-.66-.74h-.25l-1.76.92-1.2-.33-.79-1.94H6.93l-.6 1.75-1.32.52-2.05-.95-1.23 1.2v.22l.92 1.72-.54 1.29-2.11.77V101h.25l1.86.62.5 1.17-.94 2 1.23 1.23h.25l1.73-.86 1.23.49.76 2.06h1.76v-.25l.6-1.84 1.2-.5 2.07.96 1.23-1.2v-.25l-.88-1.72.35-1.2zm-7.4 1.6a2.488 2.43 0 0 1 0-4.83 2.457 2.4 0 0 1 2.49 2.4 2.457 2.4 0 0 1-2.49 2.43" style="fill:#fff;stroke:none;stroke-width:34;stroke-linecap:butt"/></g></g></g></svg>
